tindog/images/like-icon.svg

<svg width="84" height="73" viewBox="0 0 84 73" fill="none" xmlns="http://www.w3.org/2000/svg">
<path d="M76.944 6.45373C74.9192 4.40771 72.5152 2.78466 69.8692 1.67731C67.2232 0.569957 64.3872 0 61.5231 0C58.659 0 55.8229 0.569957 53.177 1.67731C50.531 2.78466 48.127 4.40771 46.1022 6.45373L41.9001 10.698L37.698 6.45373C33.6082 2.32285 28.0611 0.00214118 22.2772 0.00214122C16.4932 0.00214127 10.9462 2.32285 6.85629 6.45373C2.76642 10.5846 0.46875 16.1873 0.46875 22.0292C0.46875 27.8712 2.76642 33.4739 6.85629 37.6048L11.0584 41.849L41.9001 73L72.7419 41.849L76.944 37.6048C78.9697 35.5597 80.5766 33.1316 81.673 30.4591C82.7693 27.7866 83.3336 24.9221 83.3336 22.0292C83.3336 19.1364 82.7693 16.2719 81.673 13.5994C80.5766 10.9269 78.9697 8.49879 76.944 6.45373Z" fill="url(#paint0_linear_14_22)"/>
<defs>
<linearGradient id="paint0_linear_14_22" x1="71.825" y1="4.36799" x2="23.7795" y2="51.9364" gradientUnits="userSpaceOnUse">
<stop stop-color="#00D894"/>
<stop offset="1" stop-color="#56E9CD"/>
</linearGradient>
</defs>
</svg>

<svg xmlns="http://www.w3.org/2000/svg" width="84" height="73" fill="none"><path fill="url(#a)" d="M76.944 6.454a21.79 21.79 0 0 0-7.075-4.777 21.616 21.616 0 0 0-16.692 0 21.79 21.79 0 0 0-7.075 4.777L41.9 10.698l-4.202-4.244A21.699 21.699 0 0 0 22.278.002 21.7 21.7 0 0 0 6.855 6.454 22.14 22.14 0 0 0 .47 22.029a22.14 22.14 0 0 0 6.387 15.576l4.202 4.244L41.9 73l30.842-31.151 4.202-4.244a22.04 22.04 0 0 0 4.729-7.146 22.215 22.215 0 0 0 0-16.86 22.039 22.039 0 0 0-4.729-7.145Z"/><defs><linearGradient id="a" x1="71.825" x2="23.779" y1="4.368" y2="51.936" gradientUnits="userSpaceOnUse"><stop stop-color="#00D894"/><stop offset="1" stop-color="#56E9CD"/></linearGradient></defs></svg>
